resources/haticons/SVG/present_to_all.svg

<!-- Generated by IcoMoon.io -->
<svg version="1.1" xmlns="http://www.w3.org/2000/svg" width="24" height="24" viewBox="0 0 24 24">
<title>present_to_all</title>
<path d="M9.984 12h-1.969l3.984-3.984 3.984 3.984h-1.969v3.984h-4.031v-3.984zM21 19.031v-14.063h-18v14.063h18zM21 3q0.844 0 1.43 0.586t0.586 1.43v13.969q0 0.844-0.586 1.43t-1.43 0.586h-18q-0.844 0-1.43-0.586t-0.586-1.43v-13.969q0-0.844 0.586-1.43t1.43-0.586h18z"></path>
</svg>

<svg xmlns="http://www.w3.org/2000/svg" width="24" height="24"><path d="M9.984 12H8.015l3.984-3.984L15.983 12h-1.969v3.984H9.983V12zM21 19.031V4.968H3v14.063h18zM21 3q.844 0 1.43.586t.586 1.43v13.969q0 .844-.586 1.43t-1.43.586H3q-.844 0-1.43-.586t-.586-1.43V5.016q0-.844.586-1.43T3 3h18z"/></svg>
